src/images/mediaLogos/darkTheme/Zapmap.svg

<svg width="97" height="30" viewBox="0 0 97 30" fill="none" xmlns="http://www.w3.org/2000/svg">
<path d="M42.0178 22.0562C41.917 21.9162 41.8414 21.7965 41.7574 21.6873C41.1673 20.9131 40.5828 20.1375 39.9815 19.3676C39.066 18.2021 38.1427 17.0422 37.5834 15.6479C36.8494 13.773 36.8055 11.6982 37.4595 9.79393C38.1155 7.94732 39.4262 6.40554 41.1431 5.46078C42.86 4.51601 44.8638 4.23393 46.7748 4.66798C46.9008 4.69668 46.9603 4.66378 47.031 4.56579C47.8738 3.40522 48.7191 2.24675 49.5671 1.09039C49.6013 1.04419 49.637 1.00009 49.6734 0.95459L49.7112 0.975589C49.0512 2.28245 48.3904 3.58931 47.7149 4.92488C47.8395 4.97877 47.9529 5.02987 48.0649 5.07747C49.4117 5.62719 50.5806 6.53793 51.443 7.70939C52.3496 8.90853 52.8891 10.3447 52.9963 11.8442C53.1138 13.3722 52.8612 14.8415 52.178 16.2267C51.6607 17.2767 50.9642 18.2021 50.2383 19.1086C49.1121 20.5155 47.9851 21.9218 47.1192 23.5121C46.4053 24.8117 45.8565 26.1953 45.4855 27.6308C45.3357 28.2174 45.2146 28.8117 45.0802 29.4025C45.0653 29.4893 45.0419 29.5744 45.0102 29.6566C44.5713 27.2878 43.8272 25.0367 42.5603 22.9263L39.0604 27.7988L39.0247 27.7785C40.0144 25.8781 41.0049 23.9783 42.0164 22.0387L42.5715 22.8906L50.1361 12.3538H43.9413L47.6918 4.93397C47.4426 4.86398 47.2228 4.79048 46.9988 4.74148C46.9554 4.73238 46.8798 4.80098 46.8427 4.85138C46.4157 5.42769 45.9916 6.00588 45.5702 6.58593L42.6702 10.5541L40.7844 13.1398C40.4578 13.5869 40.1311 14.0344 39.8044 14.4824C39.775 14.523 39.754 14.5692 39.7197 14.628H45.8866L42.0178 22.0562Z" fill="#C29C80"/>
<path d="M56.5723 21.7325C56.5968 21.2831 56.6192 20.8422 56.6423 20.4026C56.7179 19.0959 56.7946 17.7872 56.8726 16.4764C56.9738 14.7544 57.0753 13.0325 57.177 11.3105C57.2057 10.8206 57.2288 10.3306 57.2596 9.84478C57.272 9.79155 57.2926 9.74055 57.3205 9.69359C57.3708 9.71683 57.4179 9.74648 57.4605 9.78179C58.1689 10.5723 58.8747 11.3642 59.578 12.1575C60.3144 12.9844 61.0521 13.8104 61.7913 14.6354C62.1826 15.0743 62.5718 15.516 62.9624 15.9563C63.0044 16.0032 63.0499 16.0473 63.108 16.1089C63.2781 15.9185 63.4419 15.74 63.598 15.558C65.0507 13.9019 66.5026 12.2452 67.9539 10.5882C68.1919 10.3166 68.4292 10.0443 68.67 9.77479C68.7071 9.74125 68.748 9.71212 68.7918 9.68799C68.8206 9.7335 68.8419 9.78338 68.8548 9.83568C68.9015 10.545 68.9458 11.2545 68.9878 11.9643C69.0923 13.7497 69.1955 15.5356 69.2972 17.322C69.3789 18.7415 69.4601 20.1611 69.5408 21.5806C69.5408 21.6261 69.5408 21.6723 69.5408 21.7297H66.4287C66.3363 20.0701 66.2446 18.416 66.1487 16.7123C65.9968 16.8824 65.8729 17.0154 65.7546 17.1533C64.9207 18.1202 64.0875 19.0871 63.255 20.054C63.1381 20.1905 63.0898 20.1849 62.9512 20.0295L60.0988 16.8362C60.061 16.7942 60.0288 16.7466 59.9966 16.7011L59.9588 16.7256C59.8654 18.3915 59.7735 20.0603 59.683 21.7318L56.5723 21.7325Z" fill="#ECECEC"/>
<path d="M27.2975 21.7329H24.1182V9.89552C24.1616 9.89132 24.2064 9.88362 24.2505 9.88362C25.7953 9.88362 27.3409 9.86752 28.8857 9.89482C30.0435 9.91512 31.1222 10.235 32.0279 10.9882C33.0919 11.873 33.5469 13.0517 33.5896 14.4076C33.6258 15.2151 33.4573 16.0186 33.0996 16.7434C32.6313 17.6786 31.8998 18.3324 30.943 18.7426C30.2241 19.0513 29.4681 19.1626 28.6925 19.1772C28.2963 19.1835 27.9002 19.1772 27.5026 19.1772H27.2996L27.2975 21.7329ZM27.3031 12.6051V16.5187C27.9037 16.4872 28.493 16.5012 29.0726 16.4137C29.7621 16.3101 30.1968 15.8607 30.3228 15.1713C30.3826 14.8387 30.396 14.4995 30.3627 14.1633C30.2703 13.2316 29.7621 12.7066 28.8339 12.6142C28.3334 12.5638 27.8232 12.6051 27.3031 12.6051Z" fill="#ECECEC"/>
<path d="M83.2588 9.88688C83.3008 9.88688 83.3288 9.88268 83.3575 9.88268C84.9142 9.88268 86.4717 9.86869 88.0278 9.89458C89.098 9.91208 90.1018 10.1998 90.9761 10.8431C91.7666 11.4177 92.3252 12.2565 92.5503 13.2076C92.8457 14.3808 92.7834 15.5322 92.2745 16.6375C91.8041 17.6609 91.0146 18.3552 89.9807 18.7766C89.2898 19.0566 88.5674 19.1623 87.8283 19.1742C87.4258 19.1805 87.0233 19.1742 86.6208 19.1742C86.5585 19.1742 86.4962 19.1798 86.4192 19.1833V21.7249H83.2588V9.88688ZM86.4262 16.4912C87.0415 16.4639 87.6477 16.5535 88.2461 16.4135C88.9314 16.2532 89.3339 15.8192 89.4697 15.1332C89.5512 14.7262 89.5476 14.3068 89.4592 13.9013C89.3192 13.2461 88.9244 12.8247 88.2755 12.6609C87.6687 12.5083 87.0485 12.6014 86.4262 12.5755V16.4912Z" fill="#ECECEC"/>
<path d="M5.95915 12.5596H1.63538V9.88285H10.7015C10.7365 9.88285 10.7715 9.88285 10.8065 9.88285C10.9465 9.87585 10.9738 9.93954 10.9094 10.0529C10.7799 10.2811 10.6483 10.5072 10.516 10.734L7.7546 15.4757L5.74076 18.9336C5.72396 18.963 5.70926 18.9938 5.67846 19.0526H10.4509V21.7335C10.39 21.7335 10.3291 21.7412 10.2675 21.7412H0.891301C0.655408 21.7412 0.639308 21.7174 0.761805 21.5067C1.53412 20.1767 2.30783 18.8468 3.08294 17.5168L5.86116 12.7444C5.88986 12.6989 5.91435 12.6478 5.95915 12.5596Z" fill="#ECECEC"/>
<path d="M23.0095 21.7419H22.3207C21.5213 21.7419 20.7227 21.7377 19.924 21.7461C19.8651 21.7541 19.8054 21.7402 19.756 21.7072C19.7067 21.6742 19.671 21.6243 19.6559 21.5669C19.5558 21.3191 19.4424 21.0769 19.3227 20.8361C19.3064 20.8093 19.2843 20.7864 19.258 20.7692C19.2318 20.752 19.2019 20.7409 19.1708 20.7368C17.7596 20.7321 16.3482 20.7321 14.9366 20.7368C14.9056 20.7414 14.876 20.7532 14.8503 20.7712C14.8245 20.7891 14.8033 20.8128 14.7882 20.8403C14.6678 21.0986 14.5649 21.3653 14.4445 21.6243C14.4309 21.6522 14.4113 21.6767 14.3871 21.696C14.3629 21.7154 14.3347 21.7291 14.3045 21.7363C13.319 21.7426 12.3334 21.7363 11.3478 21.7363C11.3373 21.7363 11.3275 21.7286 11.2988 21.7167C11.4276 21.4437 11.5536 21.1714 11.6838 20.9005C12.4389 19.3256 13.1944 17.7504 13.9504 16.175C14.9429 14.0998 15.9334 12.0232 16.9218 9.94517C16.9542 9.8704 16.9916 9.7979 17.0338 9.72817C17.0695 9.67567 17.1178 9.61128 17.1738 9.59868C17.2046 9.59098 17.2725 9.66867 17.2984 9.71907C17.4495 10.0208 17.5937 10.326 17.7386 10.629C18.224 11.6496 18.7088 12.6702 19.1932 13.6908C19.7462 14.8527 20.3003 16.0145 20.8556 17.176C21.27 18.0425 21.6844 18.9093 22.0988 19.7764C22.3821 20.37 22.6644 20.9642 22.9458 21.5592C22.9619 21.6131 22.978 21.6621 23.0095 21.7419ZM15.8508 18.3393H18.2237C17.8212 17.4293 17.4285 16.5453 17.0198 15.622C16.6257 16.546 16.2428 17.4356 15.8508 18.3393Z" fill="#ECECEC"/>
<path d="M82.1388 21.7416H81.4871C80.6703 21.7416 79.8541 21.7416 79.0372 21.7451C78.9837 21.7525 78.9294 21.7401 78.8843 21.7104C78.8392 21.6806 78.8065 21.6355 78.7922 21.5834C78.69 21.33 78.5766 21.0809 78.4555 20.8352C78.4391 20.8083 78.4169 20.7855 78.3905 20.7685C78.364 20.7514 78.3341 20.7404 78.3029 20.7365C76.8922 20.7318 75.4813 20.7318 74.0702 20.7365C74.037 20.7427 74.0057 20.7563 73.9785 20.7763C73.9514 20.7963 73.9291 20.8222 73.9134 20.852C73.7916 21.1096 73.6887 21.3762 73.5676 21.6345C73.552 21.6615 73.5306 21.6847 73.5049 21.7024C73.4792 21.72 73.4499 21.7318 73.4192 21.7367C72.4511 21.7423 71.4837 21.7409 70.5157 21.7367C70.4858 21.7341 70.4561 21.7296 70.4268 21.7234C70.4702 21.6233 70.5052 21.533 70.5465 21.4434L72.5687 17.2219C73.2869 15.7258 74.0048 14.2299 74.7225 12.7343C75.2009 11.7371 75.6785 10.7394 76.1554 9.74119C76.1907 9.68531 76.2325 9.63385 76.28 9.58789C76.3311 9.63619 76.4004 9.67609 76.4291 9.73559C76.8414 10.5903 77.2481 11.4477 77.6561 12.3038C78.4089 13.8802 79.1616 15.4565 79.9143 17.0329C80.6306 18.536 81.3462 20.0393 82.0611 21.5428C82.0877 21.6072 82.1073 21.6646 82.1388 21.7416ZM77.3608 18.3467C76.9604 17.4431 76.567 16.5555 76.1533 15.6231C75.7522 16.5555 75.37 17.4431 74.9822 18.3467H77.3608Z" fill="#ECECEC"/>
<path d="M96.5179 8.37101C96.5788 9.43008 95.6387 10.4577 94.4558 10.4521C93.9037 10.4521 93.3742 10.2327 92.9838 9.84233C92.5934 9.45192 92.374 8.92243 92.374 8.37032C92.374 7.8182 92.5934 7.2887 92.9838 6.8983C93.3742 6.5079 93.9037 6.28857 94.4558 6.28857C95.6681 6.29487 96.569 7.31124 96.5179 8.37101ZM96.1385 8.37801C96.1418 7.93246 95.9679 7.50387 95.6551 7.18652C95.3424 6.86917 94.9164 6.68906 94.4708 6.68581C94.0253 6.68257 93.5967 6.85644 93.2793 7.1692C92.962 7.48195 92.7819 7.90796 92.7786 8.35351C92.777 8.57413 92.8189 8.7929 92.9018 8.99734C92.9847 9.20177 93.1071 9.38787 93.262 9.54501C93.5747 9.86236 94.0008 10.0425 94.4463 10.0457C94.8919 10.049 95.3205 9.87509 95.6378 9.56233C95.7949 9.40747 95.92 9.22318 96.0059 9.01997C96.0919 8.81677 96.1369 8.59863 96.1385 8.37801V8.37801Z" fill="#ECECEC"/>
<path d="M95.4597 9.43388C95.3198 9.43388 95.1798 9.44158 95.044 9.42898C94.9904 9.41446 94.9444 9.38019 94.9152 9.33308C94.7864 9.15319 94.6604 8.97049 94.5428 8.7836C94.4252 8.5967 94.2733 8.51691 94.0283 8.5645V9.42758H93.5957V7.33464C94.0269 7.33464 94.4567 7.31084 94.8823 7.34304C95.1756 7.36474 95.3183 7.57543 95.3323 7.87642C95.3462 8.00541 95.3141 8.13515 95.2416 8.24274C95.1691 8.35033 95.0609 8.42884 94.9362 8.46441C94.9033 8.47561 94.8697 8.48331 94.8662 8.48541C95.0762 8.7801 95.2861 9.08109 95.4961 9.38208L95.4597 9.43388ZM94.0248 8.18582C94.2481 8.18582 94.4546 8.19352 94.6611 8.18582C94.8144 8.17812 94.883 8.07382 94.8795 7.92542C94.8814 7.89467 94.877 7.86386 94.8664 7.8349C94.8559 7.80594 94.8395 7.77947 94.8183 7.75713C94.7971 7.7348 94.7715 7.71708 94.7431 7.70508C94.7147 7.69309 94.6842 7.68708 94.6534 7.68743C94.4801 7.67437 94.3062 7.6711 94.1326 7.67763C94.1085 7.68363 94.0864 7.69573 94.0684 7.71278C94.0503 7.72982 94.037 7.75123 94.0297 7.77493C94.0171 7.90862 94.0248 8.04722 94.0248 8.18582Z" fill="#ECECEC"/>
</svg>

<svg fill="none" height="30" width="97" xmlns="http://www.w3.org/2000/svg"><path d="m42.018 22.056c-.101-.14-.177-.26-.26-.369-.59-.774-1.175-1.55-1.777-2.32-.915-1.165-1.838-2.325-2.398-3.72a8.492 8.492 0 0 1 -.123-5.853 8.004 8.004 0 0 1 9.315-5.126c.126.029.185-.004.256-.102.843-1.16 1.688-2.32 2.536-3.476.034-.046.07-.09.106-.135l.038.02-1.996 3.95c.124.054.238.105.35.152a7.904 7.904 0 0 1 3.378 2.632 7.775 7.775 0 0 1 1.553 4.135c.118 1.528-.135 2.998-.818 4.383-.517 1.05-1.214 1.975-1.94 2.882-1.126 1.406-2.253 2.813-3.119 4.403a17.811 17.811 0 0 0 -1.633 4.119c-.15.586-.271 1.18-.406 1.771a1.333 1.333 0 0 1 -.07.255c-.439-2.37-1.183-4.62-2.45-6.73l-3.5 4.872-.035-.02 2.991-5.74.556.852 7.564-10.537h-6.195l3.75-7.42c-.248-.07-.468-.144-.692-.193-.044-.009-.12.06-.156.11-.427.577-.851 1.155-1.273 1.735l-2.9 3.968-1.886 2.586-.98 1.342c-.029.041-.05.087-.084.146h6.167l-3.87 7.428z" fill="#c29c80"/><g fill="#ececec"><path d="m56.572 21.733c.025-.45.047-.89.07-1.33l.23-3.927.305-5.165c.029-.49.052-.98.083-1.466a.533.533 0 0 1 .06-.151.64.64 0 0 1 .14.088c.709.79 1.415 1.582 2.118 2.376.736.826 1.474 1.652 2.213 2.477.392.44.78.881 1.171 1.321.042.047.088.091.146.153.17-.19.334-.369.49-.551 1.453-1.656 2.905-3.313 4.356-4.97.238-.271.475-.544.716-.813a.648.648 0 0 1 .122-.087.5.5 0 0 1 .063.148c.046.709.09 1.418.133 2.128l.31 5.358c.08 1.42.162 2.84.243 4.259v.149h-3.112l-.28-5.018c-.152.17-.276.303-.394.441l-2.5 2.901c-.117.137-.165.13-.304-.024l-2.851-3.195c-.038-.042-.07-.09-.102-.135l-.038.025c-.094 1.666-.186 3.334-.276 5.006h-3.11zm-29.275 0h-3.179v-11.837c.044-.005.088-.012.133-.012 1.544 0 3.09-.016 4.635.01 1.158.021 2.236.341 3.142 1.094 1.064.885 1.519 2.064 1.562 3.42a4.793 4.793 0 0 1 -.49 2.335c-.469.936-1.2 1.59-2.157 2-.719.308-1.475.42-2.25.434-.397.006-.793 0-1.19 0h-.203zm.006-9.128v3.914c.6-.032 1.19-.018 1.77-.105.69-.104 1.124-.553 1.25-1.243.06-.332.073-.671.04-1.008-.093-.931-.6-1.456-1.53-1.549-.5-.05-1.01-.009-1.53-.009zm55.957-2.718c.042 0 .07-.004.099-.004 1.556 0 3.114-.014 4.67.012 1.07.017 2.074.305 2.948.948a4.087 4.087 0 0 1 1.574 2.365c.296 1.173.233 2.324-.275 3.43-.47 1.023-1.26 1.717-2.294 2.139-.691.28-1.414.385-2.153.397-.402.006-.805 0-1.207 0-.063 0-.125.006-.202.01v2.54h-3.16v-11.836zm3.167 6.604c.615-.027 1.222.063 1.82-.078.685-.16 1.088-.594 1.224-1.28a3.01 3.01 0 0 0 -.01-1.232c-.14-.655-.536-1.076-1.184-1.24-.607-.153-1.227-.06-1.85-.085zm-80.467-3.931h-4.325v-2.677h9.171c.14-.007.168.057.103.17-.13.228-.26.454-.393.681l-2.761 4.742-2.014 3.458c-.017.029-.032.06-.063.119h4.773v2.68c-.061 0-.122.008-.184.008h-9.375c-.236 0-.252-.024-.13-.234l2.322-3.99 2.778-4.773c.029-.045.053-.096.098-.184zm17.05 9.182h-.688c-.8 0-1.598-.004-2.397.004a.243.243 0 0 1 -.268-.18c-.1-.247-.214-.49-.333-.73a.21.21 0 0 0 -.152-.1 635.762 635.762 0 0 0 -4.234 0 .202.202 0 0 0 -.149.104c-.12.259-.223.525-.344.784a.209.209 0 0 1 -.14.112c-.985.007-1.97 0-2.956 0-.01 0-.02-.007-.05-.02.13-.272.256-.545.386-.816l2.266-4.725a3228.34 3228.34 0 0 0 2.972-6.23c.032-.075.07-.147.112-.217.036-.052.084-.117.14-.13.03-.007.099.07.124.121.152.302.296.607.44.91.486 1.02.97 2.041 1.455 3.062a2210.741 2210.741 0 0 0 2.906 6.085l.847 1.783c.016.054.032.103.063.183zm-7.158-3.403h2.373l-1.204-2.717c-.394.924-.777 1.814-1.17 2.717zm66.288 3.403h-.652c-.817 0-1.633 0-2.45.003a.223.223 0 0 1 -.245-.162 11.006 11.006 0 0 0 -.337-.748.208.208 0 0 0 -.152-.099c-1.41-.004-2.822-.004-4.233 0a.224.224 0 0 0 -.157.116c-.121.258-.224.524-.345.782a.21.21 0 0 1 -.149.103c-.968.005-1.935.004-2.903 0a.739.739 0 0 1 -.09-.014c.044-.1.08-.19.12-.28l2.023-4.221 2.153-4.488c.479-.997.957-1.995 1.433-2.993a.83.83 0 0 1 .125-.153c.051.048.12.088.15.148.411.854.818 1.712 1.226 2.568l2.258 4.729c.717 1.503 1.432 3.006 2.147 4.51.027.064.046.122.078.199zm-4.778-3.395-1.208-2.724c-.4.932-.783 1.82-1.17 2.724zm19.156-9.977c.06 1.06-.88 2.087-2.062 2.081a2.082 2.082 0 0 1 0-4.163c1.212.006 2.113 1.022 2.062 2.082zm-.38.007a1.68 1.68 0 1 0 -3.359-.025 1.68 1.68 0 0 0 3.36.025z"/><path d="m95.46 9.434c-.14 0-.28.008-.416-.005a.219.219 0 0 1 -.129-.096 11.13 11.13 0 0 1 -.372-.55c-.118-.186-.27-.266-.515-.218v.863h-.432v-2.093c.43 0 .86-.024 1.286.008.294.022.436.232.45.533a.55.55 0 0 1 -.396.588c-.033.012-.066.02-.07.021.21.295.42.596.63.897zm-1.435-1.248c.223 0 .43.008.636 0 .153-.008.222-.112.218-.26a.223.223 0 0 0 -.226-.239 4.62 4.62 0 0 0 -.52-.01.144.144 0 0 0 -.103.098c-.013.134-.005.272-.005.41z"/></g></svg>
